img/new/settings2.svg

<?xml version="1.0" encoding="UTF-8" standalone="no"?><!DOCTYPE svg PUBLIC "-//W3C//DTD SVG 1.1//EN" "http://www.w3.org/Graphics/SVG/1.1/DTD/svg11.dtd"><svg width="100%" height="100%" viewBox="0 0 2560 2560" version="1.1" xmlns="http://www.w3.org/2000/svg" xmlns:xlink="http://www.w3.org/1999/xlink" xml:space="preserve" xmlns:serif="http://www.serif.com/" style="fill-rule:evenodd;clip-rule:evenodd;stroke-linecap:round;stroke-linejoin:round;stroke-miterlimit:1.5;"><rect id="SETTINGS" x="0" y="0" width="2560" height="2560" style="fill:none;"/><path d="M1362.49,407.39c-54.868,-5.187 -110.104,-5.187 -164.972,0l-83.252,182.261c-72.442,17.392 -141.695,46.078 -205.218,85.004l-187.746,-70.01c-42.465,35.13 -81.523,74.188 -116.653,116.653l70.01,187.746c-38.926,63.523 -67.612,132.776 -85.004,205.218l-182.261,83.252c-5.187,54.868 -5.187,110.104 0,164.972l182.261,83.252c17.392,72.442 46.078,141.695 85.004,205.218l-70.01,187.746c35.13,42.465 74.188,81.523 116.653,116.653l187.746,-70.01c63.523,38.926 132.776,67.612 205.218,85.004l83.252,182.261c54.868,5.187 110.104,5.187 164.972,0l83.252,-182.261c72.442,-17.392 141.695,-46.078 205.218,-85.004l187.746,70.01c42.465,-35.13 81.523,-74.188 116.653,-116.653l-70.01,-187.746c38.926,-63.523 67.612,-132.776 85.004,-205.218l182.261,-83.252c5.187,-54.868 5.187,-110.104 0,-164.972l-182.261,-83.252c-17.392,-72.442 -46.078,-141.695 -85.004,-205.218l70.01,-187.746c-35.13,-42.465 -74.188,-81.523 -116.653,-116.653l-187.746,70.01c-63.523,-38.926 -132.776,-67.612 -205.218,-85.004l-83.252,-182.261Zm-82.486,592.13c154.801,0 280.48,125.679 280.48,280.48c0,154.801 -125.679,280.48 -280.48,280.48c-154.801,0 -280.48,-125.679 -280.48,-280.48c0,-154.801 125.679,-280.48 280.48,-280.48Z" style="fill:url(#_Linear1);stroke:url(#_Linear2);stroke-width:120px;"/><defs><linearGradient id="_Linear1" x1="0" y1="0" x2="1" y2="0" gradientUnits="userSpaceOnUse" gradientTransform="matrix(1753,0,0,1753,403.5,1280)"><stop offset="0" style="stop-color:#9b9b9b;stop-opacity:1"/><stop offset="1" style="stop-color:#c8c8c8;stop-opacity:1"/></linearGradient><linearGradient id="_Linear2" x1="0" y1="0" x2="1" y2="0" gradientUnits="userSpaceOnUse" gradientTransform="matrix(1753,0,0,1753,403.5,1280)"><stop offset="0" style="stop-color:#6a6a6a;stop-opacity:1"/><stop offset="1" style="stop-color:#878787;stop-opacity:1"/></linearGradient></defs></svg>

<?xml version="1.0" encoding="UTF-8" standalone="no"?>
<!DOCTYPE svg PUBLIC "-//W3C//DTD SVG 1.1//EN" "http://www.w3.org/Graphics/SVG/1.1/DTD/svg11.dtd">
<svg width="100%" height="100%" viewBox="0 0 2560 2560" version="1.1" xmlns="http://www.w3.org/2000/svg" xmlns:xlink="http://www.w3.org/1999/xlink" xml:space="preserve" xmlns:serif="http://www.serif.com/" style="fill-rule:evenodd;clip-rule:evenodd;stroke-linecap:round;stroke-linejoin:round;stroke-miterlimit:1.5;">
    <rect id="SETTINGS" x="0" y="0" width="2560" height="2560" style="fill:none;"/>
    <g transform="matrix(1.33828,0,0,1.33828,-433,-432.995)">
        <path d="M1362.49,407.39C1307.62,402.203 1252.39,402.203 1197.52,407.39L1114.27,589.651C1041.82,607.043 972.571,635.729 909.048,674.655L721.302,604.645C678.837,639.775 639.779,678.833 604.649,721.298L674.659,909.044C635.733,972.567 607.047,1041.82 589.655,1114.26L407.394,1197.51C402.207,1252.38 402.207,1307.62 407.394,1362.49L589.655,1445.74C607.047,1518.18 635.733,1587.43 674.659,1650.96L604.649,1838.7C639.779,1881.17 678.837,1920.23 721.302,1955.36L909.048,1885.35C972.571,1924.27 1041.82,1952.96 1114.27,1970.35L1197.52,2152.61C1252.39,2157.8 1307.62,2157.8 1362.49,2152.61L1445.74,1970.35C1518.18,1952.96 1587.44,1924.27 1650.96,1885.35L1838.71,1955.36C1881.17,1920.23 1920.23,1881.17 1955.36,1838.7L1885.35,1650.96C1924.28,1587.43 1952.96,1518.18 1970.35,1445.74L2152.61,1362.49C2157.8,1307.62 2157.8,1252.38 2152.61,1197.51L1970.35,1114.26C1952.96,1041.82 1924.28,972.567 1885.35,909.044L1955.36,721.298C1920.23,678.833 1881.17,639.775 1838.71,604.645L1650.96,674.655C1587.44,635.729 1518.18,607.043 1445.74,589.651L1362.49,407.39ZM1280,999.52C1434.81,999.52 1560.48,1125.2 1560.48,1280C1560.48,1434.8 1434.81,1560.48 1280,1560.48C1125.2,1560.48 999.524,1434.8 999.524,1280C999.524,1125.2 1125.2,999.52 1280,999.52Z" style="fill:url(#_Linear1);stroke:url(#_Linear2);stroke-width:120px;"/>
    </g>
    <defs>
        <linearGradient id="_Linear1" x1="0" y1="0" x2="1" y2="0" gradientUnits="userSpaceOnUse" gradientTransform="matrix(1753,0,0,1753,403.5,1280)"><stop offset="0" style="stop-color:rgb(155,155,155);stop-opacity:1"/><stop offset="1" style="stop-color:rgb(200,200,200);stop-opacity:1"/></linearGradient>
        <linearGradient id="_Linear2" x1="0" y1="0" x2="1" y2="0" gradientUnits="userSpaceOnUse" gradientTransform="matrix(1753,0,0,1753,403.5,1280)"><stop offset="0" style="stop-color:rgb(106,106,106);stop-opacity:1"/><stop offset="1" style="stop-color:rgb(135,135,135);stop-opacity:1"/></linearGradient>
    </defs>
</svg>
